SVG/mail-reply-all.svg

<?xml version="1.0" encoding="utf-8"?>
<!-- Generated by IcoMoon.io -->
<!DOCTYPE svg PUBLIC "-//W3C//DTD SVG 1.1//EN" "http://www.w3.org/Graphics/SVG/1.1/DTD/svg11.dtd">
<svg version="1.1" xmlns="http://www.w3.org/2000/svg" xmlns:xlink="http://www.w3.org/1999/xlink" width="14" height="14" viewBox="0 0 14 14">
<path fill="#444444" d="M5 8.453v0.547q0 0.328-0.305 0.461-0.102 0.039-0.195 0.039-0.211 0-0.352-0.148l-4-4q-0.148-0.148-0.148-0.352t0.148-0.352l4-4q0.227-0.242 0.547-0.109 0.305 0.133 0.305 0.461v0.539l-3.102 3.109q-0.148 0.148-0.148 0.352t0.148 0.352zM14 8.75q0 0.453-0.133 1.043t-0.301 1.078-0.375 0.977-0.316 0.707l-0.156 0.312q-0.062 0.133-0.219 0.133-0.047 0-0.070-0.008-0.195-0.062-0.18-0.266 0.336-3.125-0.828-4.414-0.5-0.555-1.332-0.863t-2.090-0.41v1.961q0 0.328-0.305 0.461-0.102 0.039-0.195 0.039-0.211 0-0.352-0.148l-4-4q-0.148-0.148-0.148-0.352t0.148-0.352l4-4q0.227-0.242 0.547-0.109 0.305 0.133 0.305 0.461v2.047q3.211 0.219 4.68 1.727 1.32 1.352 1.32 3.977z"></path>
</svg>

<svg xmlns="http://www.w3.org/2000/svg" viewBox="0 0 14 14"><path d="M5 8.453V9q0 .328-.305.46-.102.04-.195.04-.21 0-.352-.148l-4-4Q0 5.204 0 5t.148-.352l4-4q.227-.242.547-.11Q5 .673 5 1v.54L1.898 4.647Q1.75 4.796 1.75 5t.148.352zm9 .297q0 .453-.133 1.043t-.3 1.078-.376.978-.315.707l-.156.312q-.063.133-.22.133-.047 0-.07-.008-.195-.062-.18-.266.336-3.125-.828-4.414-.5-.555-1.332-.863T8 7.04V9q0 .328-.305.46-.102.04-.195.04-.21 0-.352-.148l-4-4Q3 5.204 3 5t.148-.352l4-4q.227-.242.547-.11Q8 .673 8 1v2.047q3.21.22 4.68 1.727Q14 6.126 14 8.75z" /></svg>
